symbols/web/lock_clock/materialsymbolsoutlined/lock_clock_wght600fill1_48px.svg

<svg xmlns="http://www.w3.org/2000/svg" height="48" width="48"><path d="M18 15.5h11.7v-4q0-2.55-1.7-4.325Q26.3 5.4 23.85 5.4T19.7 7.175Q18 8.95 18 11.5Zm20.3 30.6q-4 0-6.825-2.8t-2.825-6.85q0-4.05 2.825-6.85t6.825-2.8q4.05 0 6.85 2.8t2.8 6.85q0 4.05-2.8 6.85t-6.85 2.8Zm3.7-4.35 1.6-1.6-4.3-3.85V30h-2.4v7Zm-13.35 2.9H11.1q-1.65 0-2.825-1.175Q7.1 42.3 7.1 40.7V19.5q0-1.65 1.175-2.825Q9.45 15.5 11.1 15.5H14v-4q0-4.2 2.875-7.125T23.85 1.45q4.05 0 6.925 2.925T33.65 11.5v4h2.95q1.6 0 2.775 1.175Q40.55 17.85 40.55 19.5V24q-.7-.1-1.425-.175-.725-.075-1.475-.025-5.1.2-8.55 3.875-3.45 3.675-3.45 8.775 0 2.3.8 4.375t2.2 3.825Z"/></svg>

<svg xmlns="http://www.w3.org/2000/svg" height="48" width="48"><path d="M18 15.5H29.7V11.5Q29.7 8.95 28 7.175Q26.3 5.4 23.85 5.4Q21.4 5.4 19.7 7.175Q18 8.95 18 11.5ZM38.3 46.1Q34.3 46.1 31.475 43.3Q28.65 40.5 28.65 36.45Q28.65 32.4 31.475 29.6Q34.3 26.8 38.3 26.8Q42.35 26.8 45.15 29.6Q47.95 32.4 47.95 36.45Q47.95 40.5 45.15 43.3Q42.35 46.1 38.3 46.1ZM42 41.75 43.6 40.15 39.3 36.3V30H36.9V37ZM28.65 44.65H11.1Q9.45 44.65 8.275 43.475Q7.1 42.3 7.1 40.7V19.5Q7.1 17.85 8.275 16.675Q9.45 15.5 11.1 15.5H14V11.5Q14 7.3 16.875 4.375Q19.75 1.45 23.85 1.45Q27.9 1.45 30.775 4.375Q33.65 7.3 33.65 11.5V15.5H36.6Q38.2 15.5 39.375 16.675Q40.55 17.85 40.55 19.5V24Q39.85 23.9 39.125 23.825Q38.4 23.75 37.65 23.8Q32.55 24 29.1 27.675Q25.65 31.35 25.65 36.45Q25.65 38.75 26.45 40.825Q27.25 42.9 28.65 44.65Z"/></svg>
